X: 36933
T: Short Cut, The
R: reel
M: 4/4
K: Gmajor
gB ~B2ABGE|DGGB eBdB|cE E/E/E Aceg|fgef dcBA|
DB ~B2ABGE|DGGB eBdB|cEE2agfe|dcEF G2Bd:|
|:gB B/B/B gBaB|bagf gedB|cE E/E/E Aceg|dgba gfef|
gB B/B/B gBaB|bagf gedB|1 cEE2agfe|dcEF G2Bd:|2 ce e/e/e ceag|fdcA G4||

